X:1
T:More Than Conquerors
T:More Than Conquerors
T:William Augustine Ogden (1841-1897)
T:Jeremiah Eames Rankin (1828-1904)
T:Public Domain Courtesy of the Cyber Hymnal™
T:Public Domain Courtesy of the Cyber Hymnal™
C:William Augustine Ogden (1841-1897)
Z:Public Domain
Z:Courtesy of the Cyber Hymnal™
%%score ( 1 2 ) ( 3 4 )
L:1/8
Q:1/4=105
M:3/4
K:F
V:1 treble 
V:2 treble 
V:3 bass 
V:4 bass 
V:1
 C[CF] | [FA]>[FA] [FA]2 [CG][CF] | [CG]>[CF] [CF]2 F[FA] | [Fc]>[Fc] [Fc]2 [FA]F | %4
w: 1.~Through the|cleans- ing blood of the|dy- ing Lamb, Through the|power of grace and the|
w: 2.~Who shall|sev- er us from the|Sav- ior’s love, Or shall|blot our names from Life’s|
w: 3.~More than|con- quer- ors! There our|cap- tain stands, While our|names are grav- en up-|
 [FA]>[EG] !fermata![EG]2 [FA][FB] | [Fc]>[Fc] [Fc]2 [FB][Fc] | [Fd]>[Fd] [Fd]2 [Fd][Fd] | %7
w: pre- cious name, Through the|light that beams from the|Morn- ing Star, More than|
w: book a- bove? Nei- ther|pre- sent things, nor the|things to come, Shall de-|
w: on His hands; Though the|powers of dark- ness a-|gainst us frown, We shall|
 [Fc]>[Fc] [Fc]2 [FA]F |"^riten." [EG]>[EA] !fermata!F2 ||"^Refrain" [FA][FB] | %10
w: con- quer- ors, con- quer-|ors we are.||
w: feat our souls of the|heav’n- ly home.|More than|
w: win the fight, and shall|wear the crown.||
 [Fc]>[Fc] [Fc]2 [EA][EG] | [DF]>[DF] [DF]2 [DG][DA] | [DB]>[DB] [DB]2 [Gc][FA] | %13
w: |||
w: con- quer- ors, more than|con- quer- ors, Through the|cleans- ing blood of the|
w: |||
 [EG]>[EG] !fermata![EG]2 [FA][FB] | [Fc]>[Fc] [Fc]2 [FB][Fc] | [Fd]>[Fd] [Fd]2 [Fd][Fd] | %16
w: |||
w: dy- ing Lamb, More than|con- quer- ors! more than|con- quer- ors, Through the|
w: |||
 [Fc]>[Fc] [Fc]2 [FA]F |"^riten." [EG]>[EA] !fermata!F2 |] %18
w: ||
w: pow’r of grace and the|pre- cious name.|
w: ||
V:2
 C x | x6 | x4 F x | x5 F | x6 | x6 | x6 | x5 F | x2 F2 || x2 | x6 | x6 | x6 | x6 | x6 | x6 | %16
 x5 F | x2 F2 |] %18
V:3
 [F,A,][F,A,] | [F,C]>[F,C] [F,C]2 [F,B,][F,A,] | [C,B,]>[F,A,] [F,A,]2 [F,A,][F,C] | %3
 [F,A,]>[F,A,] [F,A,]2 [F,C][F,A,] | [C,C]>[C,C] [C,C]2 F,[F,G,] | [F,A,]>[F,A,] A,2 [D,B,][C,A,] | %6
 [B,,B,]>[B,,B,] [B,,B,]2 [B,,B,][B,,B,] | [F,A,]>[F,A,] [F,A,]2 [F,C][F,A,] | %8
 [C,B,]>[C,C] [F,A,]2 || F,[F,G,] | [F,A,]>[F,A,] [F,A,]2 [C,C][C,B,] | %11
 [D,A,]>[D,A,] [D,A,]2 [D,B,][D,^F,] | G,>G, G,2 [E,C][F,C] | [C,C]>[C,C] [C,C]2 F,[F,G,] | %14
 [F,A,]>[F,A,] A,2 [D,B,][C,A,] | [B,,B,]>[B,,B,] [B,,B,]2 [B,,B,][B,,B,] | %16
 [F,A,]>[F,A,] [F,A,]2 [F,C][F,A,] | [C,B,]>[C,C] [F,A,]2 |] %18
V:4
 x2 | x6 | x6 | x6 | x4 F, x | x2 (F,_E,) x2 | x6 | x6 | x4 || F, x | x6 | x6 | G,>G, G,2 x2 | %13
 x4 F, x | x2 (F,_E,) x2 | x6 | x6 | x4 |] %18

